icons/bhi_plus.svg

<svg xmlns="http://www.w3.org/2000/svg" viewBox="0 0 512 512" enable-background="new 0 0 512 512"><path fill="#010101" d="M512 326.9h-188v185.1h-138.8v-185.1h-185.2v-138.9h185.1v-188h138.9v188h188v138.9z"/></svg>

<?xml version="1.0" encoding="utf-8"?>
<!-- Generator: Adobe Illustrator 19.2.0, SVG Export Plug-In . SVG Version: 6.00 Build 0)  -->
<svg version="1.1" id="Layer_1" xmlns="http://www.w3.org/2000/svg" xmlns:xlink="http://www.w3.org/1999/xlink" x="0px" y="0px"
	 viewBox="0 0 512 512" enable-background="new 0 0 512 512" xml:space="preserve">
<g>
	<path fill="#010101" d="M512,326.9L512,326.9h-188V512H185.2l0,0V326.9H0c0,0,0,0,0,0V188l0,0h185.1V0H324v188h188L512,326.9
		L512,326.9z"/>
</g>
</svg>
